svgs/light/arrow-down-wide-short.svg

<svg xmlns="http://www.w3.org/2000/svg" viewBox="0 0 576 512"><!-- Font Awesome Pro 6.0.0-alpha2 by @fontawesome - https://fontawesome.com License - https://fontawesome.com/license (Commercial License) --><path d="M368 432H304C295.156 432 288 439.156 288 448S295.156 464 304 464H368C376.844 464 384 456.844 384 448S376.844 432 368 432ZM432 304H304C295.156 304 288 311.156 288 320S295.156 336 304 336H432C440.844 336 448 328.844 448 320S440.844 304 432 304ZM496 176H304C295.156 176 288 183.156 288 192S295.156 208 304 208H496C504.844 208 512 200.844 512 192S504.844 176 496 176ZM560 48H304C295.156 48 288 55.156 288 64S295.156 80 304 80H560C568.844 80 576 72.844 576 64S568.844 48 560 48ZM224 352C219.906 352 215.812 353.562 212.687 356.688L144 425.375V48C144 39.156 136.844 32 128 32S112 39.156 112 48V425.375L43.312 356.688C37.062 350.438 26.937 350.438 20.687 356.688S14.437 373.063 20.687 379.312L116.687 475.312C122.937 481.562 133.063 481.562 139.312 475.312L235.312 379.312C241.562 373.062 241.562 362.937 235.312 356.688C232.187 353.562 228.094 352 224 352Z"/></svg>

<svg xmlns="http://www.w3.org/2000/svg" viewBox="0 0 576 512"><!--! Font Awesome Pro 6.3.0 by @fontawesome - https://fontawesome.com License - https://fontawesome.com/license (Commercial License) Copyright 2023 Fonticons, Inc. --><path d="M368 432h-64c-8.844 0-15.1 7.156-15.1 16S295.2 464 304 464h64c8.844 0 16-7.156 16-16S376.8 432 368 432zM432 304h-128c-8.844 0-15.1 7.156-15.1 16S295.2 336 304 336h128c8.844 0 16-7.156 16-16S440.8 304 432 304zM496 176h-192c-8.844 0-15.1 7.156-15.1 16S295.2 208 304 208h192C504.8 208 512 200.8 512 192S504.8 176 496 176zM560 48h-256c-8.844 0-15.1 7.156-15.1 16S295.2 80 304 80h256C568.8 80 576 72.84 576 64S568.8 48 560 48zM224 352c-4.094 0-8.188 1.562-11.31 4.688L144 425.4V48C144 39.16 136.8 32 128 32S112 39.16 112 48v377.4l-68.69-68.69c-6.25-6.25-16.38-6.25-22.62 0s-6.25 16.38 0 22.62l96 96c6.25 6.25 16.38 6.25 22.62 0l96-96c6.25-6.25 6.25-16.38 0-22.62C232.2 353.6 228.1 352 224 352z"/></svg>
